images/btn/Play.svg

<svg width="25" height="25" viewBox="0 0 25 25" fill="none" xmlns="http://www.w3.org/2000/svg">
<path fill-rule="evenodd" clip-rule="evenodd" d="M1.76418 0.833374C1.70627 1.04956 1.66666 1.28275 1.66666 1.54913V23.4599C1.66666 23.7222 1.70627 23.953 1.76189 24.1667L13.3333 12.5162L1.76418 0.833374Z" fill="#1C1C1D"/>
<path fill-rule="evenodd" clip-rule="evenodd" d="M18.3333 8.26903L4.09826 0.362865C3.53072 0.0182122 2.97201 -0.0691532 2.5 0.0510745L14.7435 11.6667L18.3333 8.26903Z" fill="#1C1C1D"/>
<path fill-rule="evenodd" clip-rule="evenodd" d="M23.1304 11.0569L19.5257 9.16663L15.8333 12.4633L19.5942 15.8333L23.1014 14.0177C24.8136 13.098 24.189 11.6176 23.1304 11.0569Z" fill="#1C1C1D"/>
<path fill-rule="evenodd" clip-rule="evenodd" d="M2.5 24.9389C2.97687 25.0729 3.5464 24.9926 4.12551 24.6389L18.3333 16.804L14.6965 13.3334L2.5 24.9389Z" fill="#1C1C1D"/>
</svg>

<svg width="25" height="25" fill="none" xmlns="http://www.w3.org/2000/svg"><path fill-rule="evenodd" clip-rule="evenodd" d="M1.764.833c-.058.217-.097.45-.097.716v21.91c0 .263.04.494.095.708l11.571-11.65L1.764.832zm16.569 7.436L4.098.363C3.531.018 2.972-.07 2.5.05l12.243 11.616 3.59-3.398zm4.797 2.788l-3.604-1.89-3.693 3.296 3.761 3.37 3.507-1.815c1.713-.92 1.088-2.4.03-2.961zM2.5 24.939c.477.134 1.046.054 1.626-.3l14.207-7.835-3.636-3.47L2.5 24.938z" fill="#1C1C1D"/></svg>
